Sources/FrostedUI/Resources/Icons.xcassets/book32.imageset/book-32.svg

<svg width="32" height="32" viewBox="0 0 32 32" fill="none" xmlns="http://www.w3.org/2000/svg" data-fui-icon="true">
  <path
    d="M16 4.97876C20.1389 1.37382 26.6941 1.35525 31.0654 4.8479C31.699 5.35423 32 6.11884 32 6.8645V27.6858C31.9999 28.4694 31.506 29.0446 30.9365 29.3196C30.3733 29.5914 29.641 29.622 29.0205 29.2483C25.0442 26.8533 19.6757 27.2298 16.4727 29.8323C16.1972 30.0559 15.8028 30.0559 15.5273 29.8323C12.3243 27.2297 6.95583 26.8533 2.97949 29.2483C2.36166 29.6204 1.63162 29.5942 1.06738 29.3254C0.496181 29.0532 9.32117e-05 28.4797 0 27.6946V6.85376C0.000102901 6.10364 0.304335 5.35159 0.93457 4.8479C5.30591 1.35525 11.8611 1.37382 16 4.97876ZM15.25 6.32153C11.7084 3.01297 5.79703 2.883 1.87109 6.01978C1.64012 6.2044 1.5001 6.50143 1.5 6.85376V27.6946C1.50008 27.7856 1.54995 27.8947 1.71191 27.9719C1.8809 28.0524 2.07235 28.0437 2.20508 27.9641C6.22649 25.5418 11.5172 25.598 15.2529 27.8206C15.2508 27.7975 15.25 27.7739 15.25 27.7502V6.32153ZM30.1289 6.01978C26.203 2.883 20.2916 3.01297 16.75 6.32153V27.7502C16.75 27.7739 16.7482 27.7975 16.7461 27.8206C20.4818 25.5976 25.7732 25.5417 29.7949 27.9641C29.925 28.0421 30.1142 28.0509 30.2842 27.969C30.448 27.8899 30.4999 27.7783 30.5 27.6858V6.8645C30.5 6.50742 30.3568 6.20191 30.1289 6.01978Z"
    fill="currentColor"
  />
</svg>

<svg xmlns="http://www.w3.org/2000/svg" width="32" height="32" fill="none" data-fui-icon="true" viewBox="0 0 32 32"><path fill="currentColor" d="M16 4.979c4.139-3.605 10.694-3.624 15.065-.131.634.506.935 1.27.935 2.016v20.822c0 .783-.494 1.359-1.064 1.634-.563.271-1.295.302-1.916-.072-3.976-2.395-9.344-2.018-12.547.584a.75.75 0 0 1-.946 0c-3.203-2.602-8.571-2.979-12.548-.584-.617.372-1.347.346-1.912.077C.497 29.053 0 28.48 0 27.695V6.854c0-.75.304-1.502.935-2.006C5.305 1.355 11.86 1.374 16 4.978m-.75 1.343C11.708 3.013 5.797 2.883 1.871 6.02c-.23.184-.37.481-.371.834v20.84c0 .092.05.2.212.278.169.08.36.072.493-.008 4.021-2.422 9.312-2.366 13.048-.143l-.003-.07zm14.879-.302c-3.926-3.137-9.837-3.007-13.379.302V27.75l-.004.07c3.736-2.222 9.027-2.278 13.049.144.13.078.32.087.49.005.163-.08.215-.19.215-.283V6.865c0-.358-.143-.663-.371-.845"/></svg>
